icon/pk/soybean-milk-maker.svg

<svg viewBox="0 0 48 48" fill="none" xmlns="http://www.w3.org/2000/svg" height="1em" width="1em">
  <path d="M35 10H40.0644C40.5909 10 41.0272 10.4082 41.0622 10.9335L41.9289 23.9335C41.9674 24.5107 41.5096 25 40.9311 25H32" stroke="black" stroke-width="4" stroke-linecap="round" stroke-linejoin="round"/>
  <path d="M7 5H35L31 31H15L12 10L7 5Z" stroke="black" stroke-width="4" stroke-linecap="round" stroke-linejoin="round"/>
  <path d="M15 31H31L35 43H11L15 31Z" fill="#2F88FF" stroke="black" stroke-width="4" stroke-linecap="round" stroke-linejoin="round"/>
  <path d="M21 37H25" stroke="white" stroke-width="4" stroke-linecap="round" stroke-linejoin="round"/>
</svg>

<svg width="48" height="48" fill="none" xmlns="http://www.w3.org/2000/svg"><path d="M35 10h5.064a1 1 0 0 1 .998.934l.867 13A1 1 0 0 1 40.93 25H32M7 5h28l-4 26H15l-3-21-5-5Z" stroke="#000" stroke-width="4" stroke-linecap="round" stroke-linejoin="round"/><path d="M15 31h16l4 12H11l4-12Z" fill="#2F88FF" stroke="#000" stroke-width="4" stroke-linecap="round" stroke-linejoin="round"/><path d="M21 37h4" stroke="#fff" stroke-width="4" stroke-linecap="round" stroke-linejoin="round"/></svg>
